public/icons/new-chat.svg

<svg xmlns:xlink="http://www.w3.org/1999/xlink" xmlns="http://www.w3.org/2000/svg" viewBox="0 0 24 24" height="24" width="24" preserveAspectRatio="xMidYMid meet" class="" fill="none"><title>new-chat-outline</title><path d="M9.53277 12.9911H11.5086V14.9671C11.5086 15.3999 11.7634 15.8175 12.1762 15.9488C12.8608 16.1661 13.4909 15.6613 13.4909 15.009V12.9911H15.4672C15.9005 12.9911 16.3181 12.7358 16.449 12.3226C16.6659 11.6381 16.1606 11.0089 15.5086 11.0089H13.4909V9.03332C13.4909 8.60007 13.2361 8.18252 12.8233 8.05119C12.1391 7.83391 11.5086 8.33872 11.5086 8.991V11.0089H9.49088C8.83941 11.0089 8.33411 11.6381 8.55097 12.3226C8.68144 12.7358 9.09947 12.9911 9.53277 12.9911Z" fill="#AEBAC1"></path><path fill-rule="evenodd" clip-rule="evenodd" d="M0.944298 5.52617L2.99998 8.84848V17.3333C2.99998 18.8061 4.19389 20 5.66665 20H19.3333C20.8061 20 22 18.8061 22 17.3333V6.66667C22 5.19391 20.8061 4 19.3333 4H1.79468C1.01126 4 0.532088 4.85997 0.944298 5.52617ZM4.99998 8.27977V17.3333C4.99998 17.7015 5.29845 18 5.66665 18H19.3333C19.7015 18 20 17.7015 20 17.3333V6.66667C20 6.29848 19.7015 6 19.3333 6H3.58937L4.99998 8.27977Z" fill="#AEBAC1"></path></svg>

<svg xmlns="http://www.w3.org/2000/svg" height="24" width="24" preserveAspectRatio="xMidYMid meet" fill="#aebac1" xmlns:v="https://vecta.io/nano"><path d="M9.533 12.991h1.976v1.976c0 .433.255.85.668.982.685.217 1.315-.287 1.315-.94v-2.018h1.976c.433 0 .851-.255.982-.668.217-.684-.288-1.314-.94-1.314h-2.018V9.033c0-.433-.255-.851-.668-.982-.684-.217-1.315.288-1.315.94v2.018H9.491c-.651 0-1.157.629-.94 1.314.13.413.549.668.982.668z"/><path fill-rule="evenodd" d="M.944 5.526L3 8.848v8.485C3 18.806 4.194 20 5.667 20h13.667C20.806 20 22 18.806 22 17.333V6.667C22 5.194 20.806 4 19.333 4H1.795a1 1 0 0 0-.85 1.526zM5 8.28v9.054c0 .368.298.667.667.667h13.667c.368 0 .667-.299.667-.667V6.667c0-.368-.299-.667-.667-.667H3.589L5 8.28z"/></svg>
